source/img/services/services-nav/seo-icon-active.svg

<svg width="32" height="32" viewBox="0 0 32 32" fill="none" xmlns="http://www.w3.org/2000/svg">
<g clip-path="url(#clip0)">
<path d="M19.5263 20.8024L18.4244 19.7006L19.5396 18.3648L20.4211 19.2462L21.3074 19.2414L26.8156 24.9722L24.5876 27.2002L19.0794 21.4694L19.5263 20.8024Z" fill="url(#paint0_linear)"/>
<path fill-rule="evenodd" clip-rule="evenodd" d="M13.1944 7.0772C9.85542 7.10969 7.12975 9.85125 7.10642 13.2006C7.08309 16.55 9.77092 19.2389 13.1099 19.2064C16.4488 19.1739 19.1745 16.4324 19.1978 13.083C19.206 11.9033 18.8783 10.8066 18.3046 9.8815C18.1899 9.6964 18.248 9.45049 18.4344 9.33225C18.6209 9.214 18.8651 9.2682 18.9799 9.4533C19.6292 10.5004 20 11.7422 19.9907 13.0753C19.9643 16.8639 16.8812 19.965 13.1043 20.0018C9.32749 20.0385 6.28715 16.997 6.31354 13.2084C6.33993 9.4197 9.42306 6.31859 13.1999 6.28184C14.6148 6.26807 15.9275 6.68675 17.0136 7.41513C17.1942 7.53625 17.2403 7.78298 17.1165 7.9662C16.9927 8.14943 16.746 8.19978 16.5654 8.07865C15.6056 7.43498 14.4463 7.06501 13.1944 7.0772Z" fill="#0A3D76"/>
<path fill-rule="evenodd" clip-rule="evenodd" d="M13.0978 20.7978C17.3125 20.7568 20.7531 17.2962 20.7825 13.0683C20.8119 8.84035 17.419 5.44616 13.2043 5.48713C8.98954 5.5281 5.54899 8.98871 5.51958 13.2166C5.50923 14.7056 5.92293 16.09 6.64714 17.2579C6.76192 17.443 6.70382 17.6889 6.51736 17.8072C6.3309 17.9254 6.0867 17.8712 5.97192 17.6861C5.17206 16.3962 4.71528 14.8667 4.7267 13.2243C4.75916 8.55716 8.55718 4.737 13.2098 4.69177C17.8624 4.64655 21.6078 8.39338 21.5754 13.0606C21.5429 17.7277 17.7449 21.5479 13.0923 21.5931C11.3491 21.6101 9.73224 21.0943 8.3943 20.197C8.21369 20.0759 8.16761 19.8292 8.29138 19.646C8.41515 19.4627 8.66191 19.4124 8.84252 19.5335C10.0541 20.3461 11.5177 20.8131 13.0978 20.7978Z" fill="#0A3D76"/>
<path fill-rule="evenodd" clip-rule="evenodd" d="M19.485 17.8658L20.6626 19.0471L20.9574 19.0024C21.3903 18.9367 21.8255 19.0788 22.1318 19.3861L26.7185 23.9873C27.0247 24.2945 27.1665 24.7308 27.1011 25.165L27.0764 25.3293C27.0314 25.6278 26.8914 25.9052 26.6774 26.1199L25.8765 26.9233C25.6625 27.138 25.3859 27.2785 25.0883 27.3236L24.9246 27.3484C24.4918 27.4139 24.0568 27.2717 23.7505 26.9645L19.1638 22.3633C18.8575 22.0561 18.7158 21.6197 18.7811 21.1855L18.8256 20.8899L17.6479 19.7091L19.485 17.8658ZM19.6195 20.9301L19.5651 21.2914C19.5371 21.4775 19.5978 21.6645 19.7291 21.7962L24.3159 26.3974C24.4471 26.5291 24.6335 26.59 24.819 26.5619L24.9828 26.5371C25.1103 26.5178 25.2288 26.4576 25.3205 26.3656L26.1214 25.5622C26.2131 25.4702 26.2731 25.3513 26.2924 25.2233L26.3171 25.0591C26.3451 24.873 26.2844 24.686 26.1531 24.5543L21.5665 19.9532C21.4352 19.8215 21.2487 19.7606 21.0632 19.7888L20.7028 19.8434L19.6195 20.9301ZM19.9583 19.4748L19.4757 18.9907L18.7693 19.6995L19.2519 20.1834L19.9583 19.4748Z" fill="#0A3D76"/>
</g>
<defs>
<linearGradient id="paint0_linear" x1="26.5682" y1="22.7577" x2="18.6593" y2="22.5532" gradientUnits="userSpaceOnUse">
<stop stop-color="#A62E41"/>
<stop offset="1" stop-color="#E13152"/>
</linearGradient>
<clipPath id="clip0">
<rect width="32" height="32" fill="white"/>
</clipPath>
</defs>
</svg>

<svg width="32" height="32" fill="none" xmlns="http://www.w3.org/2000/svg"><g clip-path="url(#clip0)"><path d="M19.526 20.802l-1.102-1.101 1.116-1.336.881.881.886-.005 5.509 5.731-2.228 2.228-5.509-5.73.447-.668z" fill="url(#paint0_linear)"/><path fill-rule="evenodd" clip-rule="evenodd" d="M13.194 7.077c-3.339.033-6.064 2.774-6.088 6.124a5.935 5.935 0 006.004 6.005c3.339-.032 6.064-2.774 6.088-6.123a5.97 5.97 0 00-.893-3.201.402.402 0 01.13-.55.392.392 0 01.545.121 6.758 6.758 0 011.01 3.622c-.026 3.789-3.109 6.89-6.886 6.927a6.713 6.713 0 01-6.79-6.794c.026-3.788 3.11-6.89 6.886-6.926a6.702 6.702 0 013.814 1.133c.18.121.226.368.102.551a.399.399 0 01-.55.113 5.922 5.922 0 00-3.372-1.002z" fill="#0A3D76"/><path fill-rule="evenodd" clip-rule="evenodd" d="M13.098 20.798c4.214-.041 7.655-3.502 7.684-7.73a7.491 7.491 0 00-7.578-7.58c-4.214.04-7.655 3.5-7.684 7.729a7.538 7.538 0 001.127 4.04.402.402 0 01-.13.55.392.392 0 01-.545-.12 8.325 8.325 0 01-1.245-4.463c.032-4.667 3.83-8.487 8.483-8.532a8.27 8.27 0 018.365 8.369c-.032 4.667-3.83 8.487-8.483 8.532a8.255 8.255 0 01-4.698-1.396.395.395 0 01-.103-.551.399.399 0 01.552-.113 7.476 7.476 0 004.255 1.265z" fill="#0A3D76"/><path fill-rule="evenodd" clip-rule="evenodd" d="M19.485 17.866l1.178 1.181.294-.045a1.37 1.37 0 011.175.384l4.586 4.601c.307.308.448.744.383 1.178l-.025.164a1.421 1.421 0 01-.399.79l-.8.804a1.405 1.405 0 01-.789.4l-.163.025a1.366 1.366 0 01-1.175-.383l-4.586-4.602a1.376 1.376 0 01-.383-1.177l.045-.296-1.178-1.18 1.837-1.844zm.134 3.064l-.054.361a.59.59 0 00.164.505l4.587 4.601a.585.585 0 00.503.165l.164-.025a.605.605 0 00.337-.171l.801-.804a.61.61 0 00.171-.339l.025-.164a.59.59 0 00-.164-.505l-4.586-4.6a.585.585 0 00-.504-.165l-.36.054-1.084 1.087zm.34-1.455l-.483-.484-.707.709.483.483.706-.708z" fill="#0A3D76"/></g><defs><linearGradient id="paint0_linear" x1="26.568" y1="22.758" x2="18.659" y2="22.553" gradientUnits="userSpaceOnUse"><stop stop-color="#A62E41"/><stop offset="1" stop-color="#E13152"/></linearGradient><clipPath id="clip0"><path fill="#fff" d="M0 0h32v32H0z"/></clipPath></defs></svg>
